icons/type-icons/icons/text-x-authors.svg

<?xml version="1.0" encoding="UTF-8"?><svg width="22" height="22" version="1.1" xmlns="http://www.w3.org/2000/svg">
 <g id="layer1" transform="translate(-326 -534.36)" fill="#6c7a89" stroke-width="2">
  <path id="path4245" transform="translate(326 534.36)" d="m11 3a8 8 0 0 0-8 8 8 8 0 0 0 8 8 8 8 0 0 0 8-8 8 8 0 0 0-8-8zm0 1a7 7 0 0 1 7 7 7 7 0 0 1-7 7 7 7 0 0 1-7-7 7 7 0 0 1 7-7z"/>
  <path id="path4290" transform="translate(326 534.36)" d="m11 6a5 5 0 0 0-5 5 5 5 0 0 0 5 5 5 5 0 0 0 3.5332-1.4668l-0.70703-0.70703a4 4 0 0 1-2.8262 1.1738 4 4 0 0 1-4-4 4 4 0 0 1 4-4 4 4 0 0 1 2.8262 1.1738l0.70703-0.70703a5 5 0 0 0-3.5332-1.4668z"/>
 </g>
</svg>

<?xml version="1.0" encoding="UTF-8" standalone="no"?>

<!-- Created with Inkscape (http://www.inkscape.org/) -->
<svg width="22" version="1.1" xmlns="http://www.w3.org/2000/svg" height="22" xmlns:inkscape="http://www.inkscape.org/namespaces/inkscape">
 <defs id="defs3871"/>
 <metadata id="metadata3874"/>
 <g inkscape:label="Capa 1" inkscape:groupmode="layer" id="layer1" transform="matrix(1 0 0 1 -326 -534.3622)">
  <path style="fill:#6c7a89;stroke-width:2" id="path4245" d="M 11 3 A 8 7.9999919 0 0 0 3 11 A 8 7.9999919 0 0 0 11 19 A 8 7.9999919 0 0 0 19 11 A 8 7.9999919 0 0 0 11 3 z M 11 4 A 7 7 0 0 1 18 11 A 7 7 0 0 1 11 18 A 7 7 0 0 1 4 11 A 7 7 0 0 1 11 4 z " transform="matrix(1 0 0 1 326 534.3622)"/>
  <path style="fill:#6c7a89;stroke-width:2" id="path4290" d="M 11 6 A 5 5 0 0 0 6 11 A 5 5 0 0 0 11 16 A 5 5 0 0 0 14.533203 14.533203 L 13.826172 13.826172 A 4 4 0 0 1 11 15 A 4 4 0 0 1 7 11 A 4 4 0 0 1 11 7 A 4 4 0 0 1 13.826172 8.1738281 L 14.533203 7.4667969 A 5 5 0 0 0 11 6 z " transform="matrix(1 0 0 1 326 534.3622)"/>
 </g>
</svg>
